X: 1
T: THE PAUSTEEN FAWN -- JIG
B: Ryan's Mammoth Collection of Fiddle Tunes
R: jig
M: 6/8
L: 1/8
Z: Contributed 20010704235908 by John Chambers jmchambers:rcn.net
K: D
uA \
| dec dcd | efg f2d | ecA GFG | ABc A2G \
| Adc dcd | efg fed | ecA GFE | DFA d2 :|
K:Dmix=c
|: uE \
| FAB cAA | BGG cAG | FAB cBc | Adc d2D \
| FAB cBc | Ade fed | ecA GFE | FDD D2 :|
